X:1
T:Nagpur, 87.87.87.7
T:Nagpur, 87.87.87.7
T:Theodore Edson Perkins, 1875
T:Public Domain Courtesy of the Cyber Hymnal™
C:Theodore Edson Perkins, 1875
Z:Public Domain
Z:Courtesy of the Cyber Hymnal™
%%score ( 1 2 ) ( 3 4 )
L:1/8
Q:1/4=108
M:4/4
K:Bb
V:1 treble 
V:2 treble 
V:3 bass 
V:4 bass 
V:1
 F2 | [DB]2 [EB]2 [FB]3 [FB] | [EA]2 [DB]2 [Fc]2 [Fc]2 | [Fd]2 [FB]2 [Fe]2 [Fd]2 | [Fd]2 [Fc]4 F2 | %5
 [DB]2 [EB]2 [FB]3 [FB] | [EA]2 [DB]2 [Fc]2 [Fd]2 | [Ge]2 e2 [Fd]2 [GB]2 | [Ec]2 [DB]4 F2 | %9
 F2 [FG]2 [FA]3 [FB] | [Fc]2 [Fd]2 [Fe]3 [Fe] | [^Ed]2 [Ec]2 [DB]2 F2 | [EG]2 [GB]4 [EG]2 | %13
 F2 [EF]2 [DB]2 [Fd]2 | [Ec]2 [DB]4 |] %15
V:2
 F2 | x8 | x8 | x8 | x6 F2 | x8 | x8 | x2 (EF) x4 | x6 F2 | F2 x6 | x8 | x6 F2 | x8 | F2 x6 | x6 |] %15
V:3
 [F,A,]2 | [B,,B,]2 [C,B,]2 [D,B,]3 [D,B,] | [C,F,]2 [B,,F,]2 [F,A,]2 [F,A,]2 | %3
 B,2 [D,B,]2 [C,A,]2 [B,,B,]2 | [F,B,]2 [F,A,]4 [F,A,]2 | [B,,B,]2 [C,B,]2 [D,B,]3 [D,B,] | %6
 [C,F,]2 [B,,F,]2 [F,A,]2 B,2 | [E,B,]2 ([G,B,][A,C]) B,2 [D,B,]2 | [F,A,]2 [B,,B,]4 [F,A,]2 | %9
 [F,A,]2 [F,B,]2 [F,C]3 [F,D] | [F,A,]2 [F,B,]2 [F,C]3 [A,C] | B,2 [F,A,]2 [G,B,]2 [D,B,]2 | %12
 [E,B,]2 [E,B,]4 [E,B,]2 | [D,B,]2 [C,A,]2 [B,,B,]2 B,2 | [F,A,]2 [B,,B,]4 |] %15
V:4
 x2 | x8 | x8 | B,2 x6 | x8 | x8 | x6 B,2 | x4 B,2 x2 | x8 | x8 | x8 | B,2 x6 | x8 | x6 B,2 | x6 |] %15

